X: 1
L: 1/4
K: C clef=none
CEGc | [K: C treble] CEGc |[K: Cm bass]C,E,G,C |
w: none | treble | bass |
[K: C bass3]C,E,G,C | [K: Cm alto4]CEGc| [K: C alto]CEGc |
w: baritone | tenor | alto |
[K: Cm alto2]CEGc | [K: C alto1]CEGc | [K: perc] cdef |]
w: mezzosoprano | soprano | percussions |
[K: C treble+8] CEGc | [K: C treble-8] CEGc |
w: +octave\ indication | \-octave\ indication |
[K: C treble^8] CEGc | [K: C treble_8] CEGc |
w: +octave\ and\ transposition * | \-octave\ and\ transposition * |
